src/assets/outline/More.svg

<?xml version="1.0" encoding="UTF-8"?>
<svg width="24" height="24" viewBox="0 0 24 24" xmlns="http://www.w3.org/2000/svg">
 <path d="m5 14.75c-1.52 0-2.75-1.23-2.75-2.75s1.23-2.75 2.75-2.75 2.75 1.23 2.75 2.75-1.23 2.75-2.75 2.75zm0-4c-0.69 0-1.25 0.56-1.25 1.25s0.56 1.25 1.25 1.25 1.25-0.56 1.25-1.25-0.56-1.25-1.25-1.25z"/>
 <path d="m19 14.75c-1.52 0-2.75-1.23-2.75-2.75s1.23-2.75 2.75-2.75 2.75 1.23 2.75 2.75-1.23 2.75-2.75 2.75zm0-4c-0.69 0-1.25 0.56-1.25 1.25s0.56 1.25 1.25 1.25 1.25-0.56 1.25-1.25-0.56-1.25-1.25-1.25z"/>
 <path d="m12 14.75c-1.52 0-2.75-1.23-2.75-2.75s1.23-2.75 2.75-2.75 2.75 1.23 2.75 2.75-1.23 2.75-2.75 2.75zm0-4c-0.69 0-1.25 0.56-1.25 1.25s0.56 1.25 1.25 1.25 1.25-0.56 1.25-1.25-0.56-1.25-1.25-1.25z"/>
</svg>

<svg width="24" height="24" viewBox="0 0 24 24"  xmlns="http://www.w3.org/2000/svg">
<path d="M5 14.75C3.48 14.75 2.25 13.52 2.25 12C2.25 10.48 3.48 9.25 5 9.25C6.52 9.25 7.75 10.48 7.75 12C7.75 13.52 6.52 14.75 5 14.75ZM5 10.75C4.31 10.75 3.75 11.31 3.75 12C3.75 12.69 4.31 13.25 5 13.25C5.69 13.25 6.25 12.69 6.25 12C6.25 11.31 5.69 10.75 5 10.75Z" />
<path d="M19 14.75C17.48 14.75 16.25 13.52 16.25 12C16.25 10.48 17.48 9.25 19 9.25C20.52 9.25 21.75 10.48 21.75 12C21.75 13.52 20.52 14.75 19 14.75ZM19 10.75C18.31 10.75 17.75 11.31 17.75 12C17.75 12.69 18.31 13.25 19 13.25C19.69 13.25 20.25 12.69 20.25 12C20.25 11.31 19.69 10.75 19 10.75Z" />
<path d="M12 14.75C10.48 14.75 9.25 13.52 9.25 12C9.25 10.48 10.48 9.25 12 9.25C13.52 9.25 14.75 10.48 14.75 12C14.75 13.52 13.52 14.75 12 14.75ZM12 10.75C11.31 10.75 10.75 11.31 10.75 12C10.75 12.69 11.31 13.25 12 13.25C12.69 13.25 13.25 12.69 13.25 12C13.25 11.31 12.69 10.75 12 10.75Z" />
</svg>
